X: 1
T: Katariina's polkka
R: polka
O: Richard Koski
B:
D: "Saturday Night Sauna" with the Crumtown Ramblers
Z: 1998 by John Chambers <jc@trillian.mit.edu>
N:
M: 2/4
L: 1/16
K: Am
   "Am"e4 \
| "Dm"fedc BcBA | "E7"c2B2 B3E  |     c2B2 Bcdc | "Am"B2A2 A4 \
|     A2AB cBcd | "Dm"e2d2 d4   |     d3e  fefg | "Am"f2e2 e4 |
y8\
| "Dm"fedc BcBA | "E7"c2B2 B3E  |     c2B2 Bcdc | "Am"B2A2 A4 \
| "Dm"d2de fga2 | "Am"A2AB cde2 | "E7"E2E2 c2B2 | "Am"A2z2 :|
|:  "G7"G4 \
| "C"C2EG c2B2 |     A2G2 G4   |     C2EG c2B2 | "Dm"B2A2 F4 \
|  "G7"D2D2 G2G2 |     FEDE F2F2 |     D2D2 F2F2 |  "C"EDCD E2E2 |
y8\
|   "C"C2EG c2B2 |     A2G2 G4   |     C2EG c2B2 | "Dm"B2A2 F4 \
|  "Dm"d2de fga2 | "Am"A2AB cde2 | "E7"E2E2 c2B2 | "Am"A2z2 :|

%%sep 1 1 500

